!!!OTL: Graf und Nonne (Die Nonne) Jungfraeulein bist du's zaertlich,
!!!ARE: Europa, Osteuropa, UdSSR, Krim, Friedental
!!!YOR: 8, S. 69
!!    1927 aufgezeichnet
!!!SCT: Q0155S
!!!YEM: Copyright 1995, estate of Helmut Schaffrath.
**kern
*ICvox
*Ivox
!! Mixed meters:  6/8; 9/8
*M6/8
*k[]
*C:
{8G
=1
4c
8e
8f
8e
8c
=2
4d
8B
4G}
{8G
=3
4d
8g
8g
8f
8d
=4
2e
8r}
{16c
16d
=5
*M9/8
4e
8a
4g
8e
8f
8d}
{16B
16c
=6
4d
8d
4f
8d
8e
8c}
{8G
=7
*M6/8
4g
8e
4d
8e
=8
4.c
4r}
==
!!!AGN: Ballade, Standesunterschied, vergebliche Werbung, Liebe, Klage
!! Pause am Ende der ersten Zeile weggelassen.
!!!ONB: ESAC (Essen Associative Code) Database: BALLADE
!!!AMT: irregular
!!!AIN: vox
!!!EED: Helmut Schaffrath
!!!EEV: 1.0
*-
